X:610
T:Carraroe
R:Jig
O:Ireland
S:Music from Ireland Vol. 3
B:Music from Ireland Vol. 3
Z:Transcription, chords:Mike Long
M:6/8
L:1/8
K:D
"D"DED F2A|dfe d2B|AFA def|"A"afd e2F|\
"D"DED F2A|dfe d2B|"G"d2B AFA|"A"dAF E2D:|
|:"D"dfa afa|"G"bge edB|"D"dfa afa|"G"bge e2 f|\
"D"dfa afa|"G"bge edB|d2 B AFA|"(A)"dAF E2 D:|
